X: 22
T:The Highlandman
M:4/4
L:1/8
F:http://blackrosetheband.googlepages.com/ABCTUNES.ABC May 2009
C:Traditional
S:Altan Track 1
K:A
|:A2 {AB}A2 3)Bcd ec | ABce dBGB | A2 {AB}A2 3)Bcd eg | afge dBGB :|
K:C
cg ~g2 afge | cege dBGB | cg ~g2 afgb | afge dBGB :|

